X: 1
T: Rodney's Glory
R: hornpipe
M: 4/4
L: 1/8
K: Ador
ed | c2 Bc ABcA | BGEF G2 cd | e=fed cde^f | gfge d=fed |
c2 Bc ABcA | BGEF G2 ed | c2 BA GABG | A2 AG A2 :|
|: cd | eaab aged | e=fed c2 A2 | g2 fg agec | dcAF G2 E2 |
AGAB cBcd | edeg a2 ab | aged cdef | gfge d=fed |
c2 Bc ABcA | BGEF G2 ed | c2 BA GABG | A2 AG A2 :|


Tune 3786	Setting 29476

